X:1
T:A Man's a Man
T:A Man's a Man
T:The Balkan Princess
T:Paul Rubens
C:Paul Rubens
%%score 1 [ 2 3 ] { ( 4 6 ) | ( 5 7 ) }
L:1/8
Q:1/4=80
M:4/4
K:Bb
V:1 treble-8 nm="Tenor"
V:2 treble nm="Kvinner"
V:3 bass nm="Menn"
V:4 treble nm="Piano"
V:6 treble 
V:5 bass 
V:7 bass 
V:1
"^Slow march time" z2 | z8 | z8 | z8 | z4 z2 D3/2 E/ | C2 =B,2 C2 D3/2 E/ | F6 G3/2 A/ | %7
w: ||||There are|some men born to be|led, There are|
 B2 A2 B2 c2 | F6 D3/2 E/ | C2 =B,2 C2 D3/2 E/ | F6 G3/2 A/ | B4 A4 | D6 D3/2 D/ | %13
w: some men born to|lead; There are|men whose life- blood is|shed In the|hour of|need. But a|
 G2 G2 G2 F3/2 E/ | D2 F4 G3/2 G/ | A2 A2 A2 G3/2 F/ | B6 B3/2 c/ | d2 d2 d2 c3/2 B/ | %18
w: man will show what his|worth is, Be his|breed the worst or the|best, For it|mat- ters not what his|
 A2 c4 A3/2 F/ |"^rit." D6 C3/2 B,/ | F6"^a tempo" D3/2 E/ || F2 G3/2 A/ B2 B3/2 c/ | %22
w: birth is When he's|put to the|test. For A|man may be born to the|
 B4 A2 G3/2 A/ | B2 G3/2 F/ E2 F2 | D6 _D2 | C2 =D3/2 =E/ F2 G2 | A2 B2 c2 F2 | B2 A3/2 G/ D2 =E2 | %28
w: pur- ple, Or be|born to the pick and|spade; It|may be his fate To|rule the state, Or|fol- low a hum- ble|
 F6 z2 | z8 | z8 | z8 | z4 z2 (C>B,) | G2 A2 B2 A3/2 B/ | d2 c2 B2 G2 | A2 B =B c3 F | _B6 z2 || %37
w: trade;||||It's _|naught to me What a|man may be, As|long as a man's a|man!|
 z8 | z8 | z8 | z4 z2 D3/2 E/ | C2 =B,2 C2 D3/2 E/ | F6 G3/2 A/ | B2 A2 B2 c2 | F6 D3/2 E/ | %45
w: |||There are|men who toil in the|gloom Of the|mine that's un- der-|ground, There are|
 C2 =B,2 C2 D3/2 E/ | F6 G3/2 A/ | B4 A4 | D6 D3/2 D/ | G2 G2 G2 F3/2 E/ | D2 F4 G2 | %51
w: men who slave at the|loom In a|cease- less|round; You may|talk of sol- diers and|sail- ors, But|
 A2 A2 A2 G3/2 F/ | B6 B3/2 c/ | d2 d2 d2 c3/2 B/ | A2 c4 A3/2 F/ |"^rit." D6 C3/2 B,/ | %56
w: don't for- get, by the|way, There are|lots of tin- kers and|tail- ors Just as|brave ev- 'ry|
 F6"^a tempo" D3/2 E/ || F2 G3/2 A/ B2 B3/2 c/ | B4 A2 G3/2 A/ | B2 G3/2 F/ E2 F2 | D6 _D3/2 D/ | %61
w: day! For A|man may be clad in the|scar- let, Or be|clad in the Na- vy|blue, But a|
 C2 (D>=E) F2 G3/2 G/ | A2 B2 c2 F2 | B2 A3/2 G/ D2 =E2 | F6 z2 | z8 | z8 | z8 | z4 z2 (C>B,) | %69
w: man whose _ sword Is a|tail- or's board May|die like a he- to|too!||||It's _|
 G2 A2 B2 A3/2 B/ | d2 c2 B2 G2 |!<(! A2 B =B!<)! c3 F | B6 z2 || z8 | z8 | z8 | z4 z2 D3/2 E/ | %77
w: naught to me What a|man may be as|long as a man's a|man!||||Oh, the|
 C2 =B,2 C2 D3/2 E/ | F6 G3/2 A/ | B2 A2 B2 c2 | F6 D3/2 E/ | C2 =B,2 C2 D3/2 E/ | F6 G3/2 A/ | %83
w: man who con- quers in|sport Is the|man who plays the|game! And in|Cup- id's won- der- ful|court It is|
 B4 A4 | D6 D3/2 D/ | G2 G3/2 G/ G2 (F>E) | D2 F4 G3/2 G/ | A2 A2 A2 G3/2 F/ | B6 B3/2 c/ | %89
w: still the|same. For a|wo- man may choose the _|wrong man Till the|right man throws down the|glove, Then she'll|
 d2 d2 d2 c3/2 B/ | A2 c4 A3/2 F/ |"^rit." D6 C3/2 B,/ | F6 D3/2 E/ || F2 G3/2 A/ B2 B3/2 c/ | %94
w: give her heart to the|strong man \- Strong in|war, strong in|love! For A|maid may be wooed with a|
 B4 A2 G3/2 A/ | B2 G3/2 F/ E2 F2 | D6 _D3/2 D/ | C2 (D>=E) F2 G2 | A2 B2 c2 F2 | %99
w: king- dom, Or be|won with a sim- ple|gown; She may|turn a- * side From|wealth and pride To|
 B2 A3/2 G/ D2 =E2 | F6 z2 | z8 | z8 | z8 | z4 z2 (C>B,) | G2 A2 B2 A3/2 B/ | d2 c2 B2 G2 | %107
w: wed with a coun- try|clown.||||But _|what cares she What a|man may be As|
!<(! A2 B =B!<)! c!fermata!f !fermata!f2 | B8- | B2 z2 z4 |] %110
w: long as a man's _ a|man!|_|
V:2
 z2 | z8 | z8 | z8 | z8 | z8 | z8 | z8 | z8 | z8 | z8 | z8 | z8 | z8 | z8 | z8 | z8 | z8 | z8 | %19
w: |||||||||||||||||||
 z8 | z8 || z8 | z8 | z8 | z8 | z8 | z8 | z8 | z4 z2!f! D3/2 E/ | F2 G3/2 A/ B2 B3/2 c/ | %30
w: |||||||||He may|live in a cot or a|
 B4 A2 G3/2 A/ | B2 G3/2 F/ E2 F2 | D6 z2 | z8 | z8 | z8 | z8 || z8 | z8 | z8 | z8 | z8 | z8 | z8 | %44
w: cas- tle, In the|court or the car- a-|van.||||||||||||
 z8 | z8 | z8 | z8 | z8 | z8 | z8 | z8 | z8 | z8 | z8 | z8 | z8 || z8 | z8 | z8 | z8 | z8 | z8 | %63
w: |||||||||||||||||||
 z8 | z4 z2!f! D3/2 E/ | F2 G3/2 A/ B2 B3/2 c/ | B4 A2 G3/2 A/ | B2 G3/2 F/ E2 F2 | D6 z2 | z8 | %70
w: |It's the|bat- tle of life he is|fight- ing, And he|does all a mor- tal|can!||
 z8 | z8 | z8 || z8 | z8 | z8 | z8 | z8 | z8 | z8 | z8 | z8 | z8 | z8 | z8 | z8 | z8 | z8 | z8 | %89
w: |||||||||||||||||||
 z8 | z8 | z8 | z8 || z8 | z8 | z8 | z8 | z8 | z8 | z8 | z4 z2!f! D3/2 E/ | F2 G3/2 A/ B2 B3/2 c/ | %102
w: |||||||||||You may|come from the cot or the|
 B4 A2 G3/2 A/ | B2 G3/2 F/ E2 F2 | D6 z2 | z8 | z8 | z8 | z8 | z8 |] %110
w: cas- tle, From the|court or the car- a-|van,||||||
V:3
 z2 | z8 | z8 | z8 | z8 | z8 | z8 | z8 | z8 | z8 | z8 | z8 | z8 | z8 | z8 | z8 | z8 | z8 | z8 | %19
w: |||||||||||||||||||
 z8 | z8 || z8 | z8 | z8 | z8 | z8 | z8 | z8 | z4 z2!f! D,3/2 E,/ | F,2 G,3/2 A,/ B,2 B,3/2 C/ | %30
w: |||||||||He may|live in a cot or a|
 B,4 A,2 G,3/2 A,/ | B,2 G,3/2 F,/ E,2 F,2 | D,6 z2 | z8 | z8 | z8 | z8 || z8 | z8 | z8 | z8 | z8 | %42
w: cas- tle, In the|court or the car- a-|van.||||||||||
 z8 | z8 | z8 | z8 | z8 | z8 | z8 | z8 | z8 | z8 | z8 | z8 | z8 | z8 | z8 || z8 | z8 | z8 | z8 | %61
w: |||||||||||||||||||
 z8 | z8 | z8 | z4 z2!f! D,3/2 E,/ | F,2 G,3/2 A,/ B,2 B,3/2 C/ | B,4 A,2 G,3/2 A,/ | %67
w: |||It's the|bat- tle of life he is|fight- ing, And he|
 B,2 G,3/2 F,/ E,2 F,2 | D,6 z2 | z8 | z8 | z8 | z8 || z8 | z8 | z8 | z8 | z8 | z8 | z8 | z8 | z8 | %82
w: does all a mor- tal|can!||||||||||||||
 z8 | z8 | z8 | z8 | z8 | z8 | z8 | z8 | z8 | z8 | z8 || z8 | z8 | z8 | z8 | z8 | z8 | z8 | %100
w: ||||||||||||||||||
 z4 z2!f! D,3/2 E,/ | F,2 G,3/2 A,/ B,2 B,3/2 C/ | B,4 A,2 G,3/2 A,/ | B,2 G,3/2 F,/ E,2 F,2 | %104
w: You may|come from the cot or the|cas- tle, From the|court or the car- a-|
 D,6 z2 | z8 | z8 | z8 | z8 | z8 |] %110
w: van,||||||
V:4
!ff! D>E | [F,DF]2 G>A B2 B>c | B4 A2 G>A | [B,F]2 F>G E2 C>D | [D,B,]6!p! D>E | %5
 [A,C]2 [^G,=B,]2 [A,C]2 D>E | F6 [G,G]>[A,A] | [B,B]2 [A,A]2 [B,B]2 [Cc]2 | F6 D>E | %9
 [A,C]2 [^G,=B,]2 [A,C]2 D>E | F6 [G,G]>[A,A] | [B,DGB]4 !arpeggio![G,^C=EA]4 | [F,A,D]6 D>D | %13
 [A,EG]2 [A,DG]2 [A,EG]2 F>E | [F,B,D]2 F4 [B,=EG]2 | [A,_EA]2 [A,EA]2 [A,EA]2 G>F | B6 B>c | %17
 [DBd]2 [DBd]2 [DBd]2 c>B | [A,FA]2 c4 A>F | D6 [=E,B,C]2 | F6"^a tempo" D>E || %21
 [F,DF]2 G>A B2 B>c | B4 [A,EA]2 G>A | [B,FB]2 G>F [G,E]2 [CEF]2 | D6 [F,_C_D]2 | %25
 [=E,B,=C]2 [F,B,=D]>[G,B,=E] [B,F]2 [B,CG]2 | [A,FA]2 [B,=EB]2 [CFc]2 [_EF]2 | %27
 [B,B]2 [A,A]>[G,G][I:staff +1] [=D,=E,B,=D]2 [E,B,C=E]2 | %28
[I:staff -1] [F,A,F]2!<(! (3[F,F][F,F][F,F] [F,F]2!<)!!f! D>E | [F,DF]2 G>A B2 B>c | %30
 B4 [A,EA]2 G>A | [B,FB]2 G>F [G,E]2 [CEF]2 | D6 C>B, | [G,B,G]2 [=A,D=A]2 [B,DB]2 [A,A]>[B,B] | %34
 [Dd]2 [Cc]2 [B,B]2 [G,B,=EG]2 | [A,EA]2 [B,EB][=B,E=B] [CEFc]3 F | [DF_B]4 [Bdfb]2!ff! D>E || %37
 [F,DF]2 G>A B2 B>c | B4 A2 G>A | [B,F]2 F>G E2 C>D | [D,B,]6!p! D>E | %41
 [A,C]2 [^G,=B,]2 [A,C]2 D>E | F6 [G,G]>[A,A] | [B,B]2 [A,A]2 [B,B]2 [Cc]2 | F6 D>E | %45
 [A,C]2 [^G,=B,]2 [A,C]2 D>E | F6 [G,G]>[A,A] | [B,DGB]4 !arpeggio![G,^C=EA]4 | [F,A,D]6 D>D | %49
 [A,EG]2 [A,DG]2 [A,EG]2 F>E | [F,B,D]2 F4 [B,=EG]2 | [A,_EA]2 [A,EA]2 [A,EA]2 G>F | B6 B>c | %53
 [DBd]2 [DBd]2 [DBd]2 c>B | [A,FA]2 c4 A>F | D6 [=E,B,C]2 | F6"^a tempo" D>E || %57
 [F,DF]2 G>A B2 B>c | B4 [A,EA]2 G>A | [B,FB]2 G>F [G,E]2 [CEF]2 | D6 [F,_C_D]2 | %61
 [=E,B,=C]2 [F,B,=D]>[G,B,=E] [B,F]2 [B,CG]2 | [A,FA]2 [B,=EB]2 [CFc]2 [_EF]2 | %63
 [B,B]2 [A,A]>[G,G][I:staff +1] [=D,=E,B,=D]2 [E,B,C=E]2 | %64
[I:staff -1] [F,A,F]2!<(! (3[F,F][F,F][F,F] [F,F]2!<)!!f! D>E | [F,DF]2 G>A B2 B>c | %66
 B4 [A,EA]2 G>A | [B,FB]2 G>F [G,E]2 [CEF]2 | D6 C>B, | [G,B,G]2 [=A,D=A]2 [B,DB]2 [A,A]>[B,B] | %70
 [Dd]2 [Cc]2 [B,B]2 [G,B,=EG]2 |!<(! [A,EA]2 [B,EB][=B,E=B] [CEFc]!<)! z [EFA]2 | %72
 [DF_B]6!ff! D>E || [F,DF]2 G>A B2 B>c | B4 A2 G>A | [B,F]2 F>G E2 C>D | [D,B,]6!p! D>E | %77
 [A,C]2 [^G,=B,]2 [A,C]2 D>E | F6 [G,G]>[A,A] | [B,B]2 [A,A]2 [B,B]2 [Cc]2 | F6 D>E | %81
 [A,C]2 [^G,=B,]2 [A,C]2 D>E | F6 [G,G]>[A,A] | [B,DGB]4 !arpeggio![G,^C=EA]4 | [F,A,D]6 D>D | %85
 [A,EG]2 [A,DG]2 [A,EG]2 F>E | [F,B,D]2 F4 [B,=EG]2 | [A,_EA]2 [A,EA]2 [A,EA]2 G>F | B6 B>c | %89
 [DBd]2 [DBd]2 [DBd]2 c>B | [A,FA]2 c4 A>F | D6 [=E,B,C]2 | F6"^a tempo" D>E || %93
 [F,DF]2 G>A B2 B>c | B4 [A,EA]2 G>A | [B,FB]2 G>F [G,E]2 [CEF]2 | D6 [F,_C_D]2 | %97
 [=E,B,=C]2 [F,B,=D]>[G,B,=E] [B,F]2 [B,CG]2 | [A,FA]2 [B,=EB]2 [CFc]2 [_EF]2 | %99
 [B,B]2 [A,A]>[G,G][I:staff +1] [=D,=E,B,=D]2 [E,B,C=E]2 | %100
[I:staff -1] [F,A,F]2!<(! (3[F,F][F,F][F,F] [F,F]2!<)!!f! D>E | [F,DF]2 G>A B2 B>c | %102
 B4 [A,EA]2 G>A | [B,FB]2 G>F [G,E]2 [CEF]2 | D6 C>B, | [G,B,G]2 [=A,D=A]2 [B,DB]2 [A,A]>[B,B] | %106
 [Dd]2 [Cc]2 [B,B]2 [G,B,=EG]2 |!<(! [A,EA]2 [B,EB][=B,E=B]!<)! [CEFc] !fermata!z !fermata![EFA]2 | %108
 [DFB]2 [dfb]>[dfb] [fbd']2 [fbd'f']2 |!8va(! [bd'f'b']2!8va)! z2 z4 |] %110
V:5
 z2 | [B,,,B,,]2 [A,,,A,,]2 [G,,,G,,]2 [_G,,,_G,,]2 | [F,,,F,,]2 [F,,,F,,]2 [F,,,F,,]2 [E,,E,]2 | %3
 [D,,D,]2 [=B,,,=B,,]2 [C,,C,]2 [F,,_E,]2 | D,2 F,,2 B,,,2 z2 | %5
 [F,,E,]2 [F,,D,]2 [F,,E,]2 [F,,E,]2 | [F,,D,]2 [F,,^C,]2 [F,,D,]2 z2 | [G,,,G,,]4 [C,,C,]4 | %8
 F,,2 C,2 F,2 F,2 | [F,,E,]2 [F,,D,]2 [F,,E,]2 [F,,E,]2 | [F,,D,]2 [F,,^C,]2 [F,,D,]2 z2 | %11
 =E,,2 F,,>G,, A,,2 A,,,2 | D,,2 A,,2 D,2 z2 | C,2 =B,,2 C,2 A,,2 | _B,,2 C,2 D,2 _D,2 | %15
 [C,F,]2 [=B,,F,]2 [C,F,]2 [E,F,]2 | [D,F,]2 [^C,F,]2 [D,F,]2 B,>A, | %17
 [G,B,]2 [F,B,]2 [=E,B,]2 [C,,C,]2 | [F,,C,]2 [G,,C,]2 [A,,C,]2 [A,,F,]2 | %19
 [B,,F,]2 [A,,D,]2 [G,,D,]2 [C,,C,]2 | [F,,_E,]2 [G,,E,]2 [A,,E,]2 [F,,E,]2 || %21
 [B,,,B,,]2 [A,,,A,,]2 [G,,,G,,]2 [_G,,,_G,,]2 | %22
 [F,,,F,,]2 !arpeggio![F,,C,=G,]2 [F,,C,F,]2 [E,A,]2 | [D,F,]2 [=B,,F,]2 C,2 [A,,F,]2 | %24
 B,,,2 F,,2 D,2 _A,,2 | G,,2 C,2 !arpeggio![C,,D,]2 !arpeggio![C,,=E,]2 | %26
 [F,,C,]2 [G,,C,]2 [A,,F,]2 [A,,F,]2 | [G,,F,]4 [C,,C,]2 [C,,C,]2 | [F,,,F,,]2 z2 z2 [F,,F,]2 | %29
 [B,,,B,,]2 [A,,,A,,]2 [G,,,G,,]2 [_G,,,_G,,]2 | %30
 [F,,,F,,]2 !arpeggio![F,,C,=G,]2 [F,,C,F,]2 [E,A,]2 | [D,F,]2 [=B,,F,]2 C,2 [A,,F,]2 | %32
 B,,,2 F,,2 D,2 [B,,D,]2 | [E,,B,,]2 [^F,,D,^F,]2 [G,,D,G,]2 z2 | !arpeggio![C,,G,,=E,]6 [C,,C,]2 | %35
 [F,,C,F,]2 [F,,C,G,][F,,C,^G,] [F,,C,A,]2 [F,A,]2 | [B,,F,B,]2 [F,,F,]2 [B,,,B,,]2 z2 || %37
 [B,,,B,,]2 [A,,,A,,]2 [G,,,G,,]2 [_G,,,_G,,]2 | [F,,,F,,]2 [F,,,F,,]2 [F,,,F,,]2 [E,,E,]2 | %39
 [D,,D,]2 [=B,,,=B,,]2 [C,,C,]2 [F,,_E,]2 | D,2 F,,2 B,,,2 z2 | %41
 [F,,E,]2 [F,,D,]2 [F,,E,]2 [F,,E,]2 | [F,,D,]2 [F,,^C,]2 [F,,D,]2 z2 | [G,,,G,,]4 [C,,C,]4 | %44
 F,,2 C,2 F,2 F,2 | [F,,E,]2 [F,,D,]2 [F,,E,]2 [F,,E,]2 | [F,,D,]2 [F,,^C,]2 [F,,D,]2 z2 | %47
 =E,,2 F,,>G,, A,,2 A,,,2 | D,,2 A,,2 D,2 z2 | C,2 =B,,2 C,2 A,,2 | _B,,2 C,2 D,2 _D,2 | %51
 [C,F,]2 [=B,,F,]2 [C,F,]2 [E,F,]2 | [D,F,]2 [^C,F,]2 [D,F,]2 B,>A, | %53
 [G,B,]2 [F,B,]2 [=E,B,]2 [C,,C,]2 | [F,,C,]2 [G,,C,]2 [A,,C,]2 [A,,F,]2 | %55
 [B,,F,]2 [A,,D,]2 [G,,D,]2 [C,,C,]2 | [F,,_E,]2 [G,,E,]2 [A,,E,]2 [F,,E,]2 || %57
 [B,,,B,,]2 [A,,,A,,]2 [G,,,G,,]2 [_G,,,_G,,]2 | %58
 [F,,,F,,]2 !arpeggio![F,,C,=G,]2 [F,,C,F,]2 [E,A,]2 | [D,F,]2 [=B,,F,]2 C,2 [A,,F,]2 | %60
 B,,,2 F,,2 D,2 _A,,2 | G,,2 C,2 !arpeggio![C,,D,]2 !arpeggio![C,,=E,]2 | %62
 [F,,C,]2 [G,,C,]2 [A,,F,]2 [A,,F,]2 | [G,,F,]4 [C,,C,]2 [C,,C,]2 | [F,,,F,,]2 z2 z2 [F,,F,]2 | %65
 [B,,,B,,]2 [A,,,A,,]2 [G,,,G,,]2 [_G,,,_G,,]2 | %66
 [F,,,F,,]2 !arpeggio![F,,C,=G,]2 [F,,C,F,]2 [E,A,]2 | [D,F,]2 [=B,,F,]2 C,2 [A,,F,]2 | %68
 B,,,2 F,,2 D,2 [B,,D,]2 | [E,,B,,]2 [^F,,D,^F,]2 [G,,D,G,]2 z2 | !arpeggio![C,,G,,=E,]6 [C,,C,]2 | %71
 [F,,C,F,]2 [F,,C,G,][F,,C,^G,] [F,,C,A,] z [F,C]2 | [B,,F,B,]2 [F,,F,]2 [B,,,B,,]2 z2 || %73
 [B,,,B,,]2 [A,,,A,,]2 [G,,,G,,]2 [_G,,,_G,,]2 | [F,,,F,,]2 [F,,,F,,]2 [F,,,F,,]2 [E,,E,]2 | %75
 [D,,D,]2 [=B,,,=B,,]2 [C,,C,]2 [F,,_E,]2 | D,2 F,,2 B,,,2 z2 | %77
 [F,,E,]2 [F,,D,]2 [F,,E,]2 [F,,E,]2 | [F,,D,]2 [F,,^C,]2 [F,,D,]2 z2 | [G,,,G,,]4 [C,,C,]4 | %80
 F,,2 C,2 F,2 F,2 | [F,,E,]2 [F,,D,]2 [F,,E,]2 [F,,E,]2 | [F,,D,]2 [F,,^C,]2 [F,,D,]2 z2 | %83
 =E,,2 F,,>G,, A,,2 A,,,2 | D,,2 A,,2 D,2 z2 | C,2 =B,,2 C,2 A,,2 | _B,,2 C,2 D,2 _D,2 | %87
 [C,F,]2 [=B,,F,]2 [C,F,]2 [E,F,]2 | [D,F,]2 [^C,F,]2 [D,F,]2 B,>A, | %89
 [G,B,]2 [F,B,]2 [=E,B,]2 [C,,C,]2 | [F,,C,]2 [G,,C,]2 [A,,C,]2 [A,,F,]2 | %91
 [B,,F,]2 [A,,D,]2 [G,,D,]2 [C,,C,]2 | [F,,_E,]2 [G,,E,]2 [A,,E,]2 [F,,E,]2 || %93
 [B,,,B,,]2 [A,,,A,,]2 [G,,,G,,]2 [_G,,,_G,,]2 | %94
 [F,,,F,,]2 !arpeggio![F,,C,=G,]2 [F,,C,F,]2 [E,A,]2 | [D,F,]2 [=B,,F,]2 C,2 [A,,F,]2 | %96
 B,,,2 F,,2 D,2 _A,,2 | G,,2 C,2 !arpeggio![C,,D,]2 !arpeggio![C,,=E,]2 | %98
 [F,,C,]2 [G,,C,]2 [A,,F,]2 [A,,F,]2 | [G,,F,]4 [C,,C,]2 [C,,C,]2 | [F,,,F,,]2 z2 z2 [F,,F,]2 | %101
 [B,,,B,,]2 [A,,,A,,]2 [G,,,G,,]2 [_G,,,_G,,]2 | %102
 [F,,,F,,]2 !arpeggio![F,,C,=G,]2 [F,,C,F,]2 [E,A,]2 | [D,F,]2 [=B,,F,]2 C,2 [A,,F,]2 | %104
 B,,,2 F,,2 D,2 [B,,D,]2 | [E,,B,,]2 [^F,,D,^F,]2 [G,,D,G,]2 z2 | !arpeggio![C,,G,,=E,]6 [C,,C,]2 | %107
 [F,,C,F,]2 [F,,C,G,][F,,C,^G,] [F,,C,A,] !fermata!z !fermata![F,C]2 | %108
!ped! [B,,F,B,]2 [B,,B,]2 [F,,F,]2 [D,,D,]2 | [B,,,B,,]2!ped-up! z2 z4 |] %110
V:6
 x2 | x2 [G,C]2 [B,D]2 [B,=E]2 | [B,_E]2 [B,E]2 [A,E]2 [A,C]2 | x2 [G,D]2 G,2 A,2 | x8 | x6 A,2 | %6
 _B,2 A,2 B,2 x2 | [DF]4 =E4 | [A,C]2 [A,C]2 [A,C]2 [_A,=B,]2 | x6 A,2 | _B,2 A,2 B,2 x2 | x8 | %12
 x8 | x6 [F,C]2 | x2 [F,A,]2 [F,B,]2 x2 | x6 [A,C]2 | [B,F]2 [B,=E]2 [B,F]2 D2 | %17
 x6 !arpeggio![B,=E]2 | x2 !arpeggio![B,=E]2 [CF]2 [A,^C]2 | x2"^rit." [^F,C]2 [=F,B,]2 x2 | %20
 [F,A,]2 [F,B,]2 [F,C]2 C2 || x2 [G,C]2 [B,D]2 [B,=E]2 | [B,_E]2 [B,E]2 x2 C2 | x2 [G,D]2 x4 | %24
 [F,B,]2 [F,B,]2 [F,B,]2 x2 | x8 | x8 | [_DF]4 x4 | x6 A,2 | x2 [G,C]2 [B,D]2 [B,=E]2 | %30
 [B,_E]2 [B,E]2 x2 C2 | x2 [G,D]2 x4 | [F,B,]2 [F,B,]2 [F,B,]2 _A,2 | x8 | [=EGB]6 x2 | x8 | x8 || %37
 x2 [G,C]2 [B,D]2 [B,=E]2 | [B,_E]2 [B,E]2 [A,E]2 [A,C]2 | x2 [G,D]2 G,2 A,2 | x8 | x6 A,2 | %42
 _B,2 A,2 B,2 x2 | [DF]4 =E4 | [A,C]2 [A,C]2 [A,C]2 [_A,=B,]2 | x6 A,2 | _B,2 A,2 B,2 x2 | x8 | %48
 x8 | x6 [F,C]2 | x2 [F,A,]2 [F,B,]2 x2 | x6 [A,C]2 | [B,F]2 [B,=E]2 [B,F]2 D2 | %53
 x6 !arpeggio![B,=E]2 | x2 !arpeggio![B,=E]2 [CF]2 [A,^C]2 | x2"^rit." [^F,C]2 [=F,B,]2 x2 | %56
 [F,A,]2 [F,B,]2 [F,C]2 C2 || x2 [G,C]2 [B,D]2 [B,=E]2 | [B,_E]2 [B,E]2 x2 C2 | x2 [G,D]2 x4 | %60
 [F,B,]2 [F,B,]2 [F,B,]2 x2 | x8 | x8 | [_DF]4 x4 | x6 A,2 | x2 [G,C]2 [B,D]2 [B,=E]2 | %66
 [B,_E]2 [B,E]2 x2 C2 | x2 [G,D]2 x4 | [F,B,]2 [F,B,]2 [F,B,]2 _A,2 | x8 | [=EGB]6 x2 | x8 | x8 || %73
 x2 [G,C]2 [B,D]2 [B,=E]2 | [B,_E]2 [B,E]2 [A,E]2 [A,C]2 | x2 [G,D]2 G,2 A,2 | x8 | x6 A,2 | %78
 _B,2 A,2 B,2 x2 | [DF]4 =E4 | [A,C]2 [A,C]2 [A,C]2 [_A,=B,]2 | x6 A,2 | _B,2 A,2 B,2 x2 | x8 | %84
 x8 | x6 [F,C]2 | x2 [F,A,]2 [F,B,]2 x2 | x6 [A,C]2 | [B,F]2 [B,=E]2 [B,F]2 D2 | %89
 x6 !arpeggio![B,=E]2 | x2 !arpeggio![B,=E]2 [CF]2 [A,^C]2 | x2"^rit." [^F,C]2 [=F,B,]2 x2 | %92
 [F,A,]2 [F,B,]2 [F,C]2 C2 || x2 [G,C]2 [B,D]2 [B,=E]2 | [B,_E]2 [B,E]2 x2 C2 | x2 [G,D]2 x4 | %96
 [F,B,]2 [F,B,]2 [F,B,]2 x2 | x8 | x8 | [_DF]4 x4 | x6 A,2 | x2 [G,C]2 [B,D]2 [B,=E]2 | %102
 [B,_E]2 [B,E]2 x2 C2 | x2 [G,D]2 x4 | [F,B,]2 [F,B,]2 [F,B,]2 _A,2 | x8 | [=EGB]6 x2 | x8 | x8 | %109
!8va(! x2!8va)! x6 |] %110
V:7
 x2 | x8 | x8 | x8 | x8 | x8 | x8 | x8 | x8 | x8 | x8 | x8 | x8 | x8 | x8 | x8 | x8 | x8 | x8 | %19
 x8 | F,,6 x2 || x8 | x8 | x8 | x8 | x8 | x8 | x8 | x8 | x8 | x8 | x8 | x8 | x8 | x8 | x8 | x8 || %37
 x8 | x8 | x8 | x8 | x8 | x8 | x8 | x8 | x8 | x8 | x8 | x8 | x8 | x8 | x8 | x8 | x8 | x8 | x8 | %56
 F,,6 x2 || x8 | x8 | x8 | x8 | x8 | x8 | x8 | x8 | x8 | x8 | x8 | x8 | x8 | x8 | x8 | x8 || x8 | %74
 x8 | x8 | x8 | x8 | x8 | x8 | x8 | x8 | x8 | x8 | x8 | x8 | x8 | x8 | x8 | x8 | x8 | x8 | %92
 F,,6 x2 || x8 | x8 | x8 | x8 | x8 | x8 | x8 | x8 | x8 | x8 | x8 | x8 | x8 | x8 | x8 | x8 | x8 |] %110

